X: 228
T: 3rd Figure of the Lancers
B: australian dance tunes
M:6/8
L:1/8
Q: 3/8=100
K:Em
V:1 
|:a2 g ede|a2 g e3|a2 g edB|d2 B G3:|!
|:FGF A2 B|c2 d e2 d|dcB G2 d|dcB G2 A|!
FGF A2 B|c2 d e2 d|dcB d2 d|dcB d2 d:|
% abcbook-tune_id 62a07850b961d29fa5dcea83


% abcbook-boost 0
% abcbook-tablature 
% abcbook-transpose 
% abcbook-lastupdated 1654683750422
% abcbook-soundfonts 
% abcbook-repeats 1


